X: 10072
T: MOLLY'S HORNPIPE
C: Bob McQuillen 12 April 93
B: Bob's Note Book 10 #72
%R: hornpipe, reel
Z: 2020 John Chambers <jc:trillian.mit.edu>
M: C
L: 1/8
K: G
GE \
| D2BG AGEG | DGBd B2Bd | edBd gdBd | edBG A2GE |\
| DGBG AGEG | DGBd B2de | gedB edBG | A2G2 G2  :|
|: Bd \
| e2de g2Bd | eage d2Bd | edeg dBGB | AGFE D2GF |\
| E2GE DGBG | FGAB G2Bd | edBd gedc | B2G2 G2  :|
%%begintext align
%% Molly Peery
%% lives over in Nelson - Her folks are Susan
%% and Gordon Peery and they are a great family
%% (She has a brother named Spencer, too) -- perhaps you'll
%% play this tune on your fiddle some day, Molly! I
%% hope you like it when you do.
%%endtext

%%sep 1 1 500

%%sep 1 1 500

